X:1
T:James Gibb editions
T:Exsultet orbis - Thermignon
T:#
%%score { 1 | 2 } 3
L:1/8
Q:1/4=96
M:3/4
K:F
V:1 treble nm="Soprano I" snm="S"
V:2 treble 
V:3 treble nm="Alto" snm="A"
V:1
"^Exsultet orbis""^Delfino Thermignon\n (1861-1944)""^moderato"!f! c2 d2 e2 | f4 A2 | d4 c2 | %3
w: Ex- sul- tet|or- bis|gau- di-|
w: Qui tem- pla|coe- li|clau- di-|
w: Ut, cum re-|di- bit|ar- bi-|
w: Je- su ti-|bi sit|glo- ri-|
 B4 z2 | B2 c2 d2 | _e4 d2 |[M:3/4] (d2 c2) B2 | c4 c2 | f4 _e2 | (d2 g2) f2 | _e4 d2 | (c4 _B2) | %12
w: is,|coe- lum re-|sul- tet|lau\- * di-|bus: A-|po- sto-|lo\- * rum|glo- ri-|a *|
w: tis,|se- ras- que|ver- bo|sol\- * vi-|tis, nos|a re-|a\- * tu|no- xi-|os *|
w: ter|in fi- ne|Chri- stus|sae\- * cu-|li, nos|sem- pi-|ter\- * ni|gau- di-|i *|
w: a,|qui na- tus|es de|Vir\- * gi-|ne, cum|Pa- tre|et al- mo|Spi- ri-|tu *|
 A2 c2 (f=e) | (d3 c) (BA) | G4 G2 | !fermata!A6 || (d4 e2 | c2 A2 F2 | G6) | !fermata!A6 |] %20
w: tel- lus et *|a\- * stra *|con- ci-|nunt.|||||
w: sol- vi ju\- *|be\- * te, *|quae- su-|mus.|||||
w: con- ce- dat *|es\- * se *|com- po-|tes.|||||
w: in sem- pi\- *|ter\- * na *|sae- cu-|la.|A\- *|||men.|
V:2
!f! A2 A2 A2 | A4 F2 | F4 ^F2 | G4 z2 | G2 A2 B2 | G4 B2 |[M:3/4] (B2 A2) G2 | A4 z2 | z2 F2 cc | %9
w: Ex- sul- tet|or- bis|gau- di-|is,|coe- lum re-|sul- tet|lau\- * di-|bus:|A- po- sto-|
w: Qui tem- pla|coe- li|clau- di-|tis,|se- ras- que|ver- bo|sol\- * vi-|tis,|nos a re-|
w: Ut, cum re-|di- bit|ar- bi-|ter|in fi- ne|Chri- stus|sae\- * cu-|li,|nos sem- pi-|
w: Je- su ti-|bi sit|glo- ri-|a,|qui na- tus|es de|Vir\- * gi-|ne,|et al- mo|
 (B4 =B2 | c4) =B2 | c4 z2 | F2 A2 A2 | (B3 A) (GF) | (FD E2) E2 | !fermata!F6 || (B6 | A2 F4- | %18
w: lo- rum|glo- ri-|a|tel- lus et|a\- * stra *|con\- * * ci-|nunt.|||
w: a- tu|no- xi-|os|sol- vi ju-|be\- * te, *|quae\- * * su-|mus.|||
w: ter- ni|gau- di-|i|con- ce- dat|es\- * se *|com\- * * po-|tes.|||
w: Spi\- *|* ri-|tu|in sem- pi-|ter\- * na *|sae\- * * cu-|la.|A\-||
 F4 E2) | !fermata!F6 |] %20
w: ||
w: ||
w: ||
w: |men.|
V:3
!f! F2 F2 E2 | D4 D2 | B,4 D2 | G,4 z2 | G2 G2 G2 | C4 B,2 |[M:3/4] F4 F2 | F4 z2 | z6 | z2 G2 GG | %10
w: Ex- sul- tet|or- bis|gau- di-|is,|coe- lum re-|sul- tet|lau- di-|bus:||A- po- sto-|
w: Qui tem- pla|coe- li|clau- di-|tis,|se- ras- que|ver- bo|sol- vi-|tis,||nos a re-|
w: Ut, cum re-|di- bit|ar- bi-|ter|in fi- ne|Chri- stus|sae- cu-|li,||nos sem- pi-|
w: Je- su ti-|bi sit|glo- ri-|a,|qui na- tus|es de|Vir- gi-|ne,||et al- mo|
 (C(C) C2) D2 | (_E4 =E2) | F2 F2 F2 | (B2 B,2) B,2 | C4 C2 | !fermata!F6 || B,4 C2 | F4 D2 | C6 | %19
w: lo- rum glo- ri-|a *|tel- lus et|a\- * stra|con- ci-|nunt.||||
w: a- tu no- xi-|os *|sol- vi ju-|be\- * te,|quae- su-|mus.||||
w: ter- ni gau- di-|i *|con- ce- dat|es\- * se|com- po-|tes.||||
w: Spi\- * * ri-|tu *|in sem- pi-|ter\- * na|sae- cu-|la.|A\- *|||
 !fermata!F6 |] %20
w: |
w: |
w: |
w: men.|

